assets/Fireworks/Flat/fireworks_flat.svg

<svg width="32" height="32" viewBox="0 0 32 32" fill="none" xmlns="http://www.w3.org/2000/svg">
<path d="M26.32 2H5.67999C3.64999 2 2 3.65 2 5.68V26.32C2 28.35 3.64999 30 5.67999 30H26.32C28.35 30 30 28.35 30 26.32V5.68C30 3.65 28.35 2 26.32 2Z" fill="#533566"/>
<path d="M12 7.5C12 7.77614 11.7761 8.00001 11.5 8.00001C11.2238 8.00001 11 7.77614 11 7.5C11 7.22386 11.2238 7 11.5 7C11.7761 7 12 7.22386 12 7.5Z" fill="#FFF478"/>
<path d="M21 25.5C21 25.7761 20.7761 26 20.5 26C20.2238 26 20 25.7761 20 25.5C20 25.2239 20.2238 25 20.5 25C20.7761 25 21 25.2239 21 25.5Z" fill="#FFF478"/>
<path d="M6.5 13C6.77613 13 7 12.7761 7 12.5C7 12.2239 6.77613 12 6.5 12C6.22387 12 6 12.2239 6 12.5C6 12.7761 6.22387 13 6.5 13Z" fill="#FFF478"/>
<path d="M26 20.5C26 20.7761 25.7761 21 25.5 21C25.2238 21 25 20.7761 25 20.5C25 20.2239 25.2238 20 25.5 20C25.7761 20 26 20.2239 26 20.5Z" fill="#FFF478"/>
<path d="M6.5 21C6.77613 21 7 20.7761 7 20.5C7 20.2239 6.77613 20 6.5 20C6.22387 20 6 20.2239 6 20.5C6 20.7761 6.22387 21 6.5 21Z" fill="#FFF478"/>
<path d="M26 12.5C26 12.7761 25.7761 13 25.5 13C25.2238 13 25 12.7761 25 12.5C25 12.2239 25.2238 12 25.5 12C25.7761 12 26 12.2239 26 12.5Z" fill="#FFF478"/>
<path d="M11.5 26C11.7762 26 12 25.7761 12 25.5C12 25.2239 11.7762 25 11.5 25C11.2239 25 11 25.2239 11 25.5C11 25.7761 11.2239 26 11.5 26Z" fill="#FFF478"/>
<path d="M21 7.5C21 7.77614 20.7762 8 20.5 8C20.2239 8 20 7.77614 20 7.5C20 7.22385 20.2239 7 20.5 7C20.7762 7 21 7.22385 21 7.5Z" fill="#FFF478"/>
<path d="M20.62 16.9444C20.41 16.7544 20.41 16.4244 20.62 16.2344L22.81 14.2544C23.14 13.9544 22.91 13.3944 22.46 13.4244L19.51 13.5744C19.23 13.5844 18.99 13.3544 19.01 13.0744L19.16 10.1244C19.18 9.67439 18.63 9.44438 18.33 9.77438L16.35 11.9644C16.16 12.1744 15.83 12.1744 15.64 11.9644L13.66 9.77438C13.36 9.44438 12.8 9.67439 12.83 10.1244L12.98 13.0744C12.99 13.3544 12.76 13.5944 12.48 13.5744L9.53003 13.4244C9.08003 13.4044 8.85002 13.9544 9.18002 14.2544L11.37 16.2344C11.58 16.4244 11.58 16.7544 11.37 16.9444L9.18002 18.9244C8.85002 19.2244 9.08003 19.7844 9.53003 19.7544L12.48 19.6044C12.76 19.5944 13 19.8244 12.98 20.1044L12.83 23.0544C12.81 23.5044 13.36 23.7344 13.66 23.4044L14.72 22.2344C14.85 22.0944 15.09 22.1844 15.09 22.3744L15.64 27.1044C15.66 27.2844 15.82 27.4244 16 27.4244C16.19 27.4244 16.34 27.2844 16.36 27.1044L16.91 22.3744C16.91 22.1844 17.15 22.0844 17.28 22.2344L18.34 23.4044C18.64 23.7344 19.2 23.5044 19.17 23.0544L19.02 20.1044C19.01 19.8244 19.24 19.5844 19.52 19.6044L22.47 19.7544C22.92 19.7744 23.15 19.2244 22.82 18.9244L20.62 16.9444Z" fill="#FCD53F"/>
<path d="M15.55 5.48438C15.55 5.73438 15.75 5.93439 16 5.93439C16.25 5.93439 16.45 5.73438 16.45 5.48438V4.69439C16.45 4.44439 16.25 4.24438 16 4.24438C15.75 4.24438 15.55 4.44439 15.55 4.69439V5.48438Z" fill="#F8312F"/>
<path d="M15.5 10.0844C15.5 10.3344 15.7222 10.5344 16 10.5344C16.2778 10.5344 16.5 10.3244 16.5 10.0844V6.99437C16.5 6.74437 16.2778 6.54437 16 6.54437C15.7222 6.54437 15.5 6.74437 15.5 6.99437V10.0844Z" fill="#F8312F"/>
<path d="M8.52999 9.0344C8.34999 9.2144 8.07 9.2144 7.89001 9.0344L7.32998 8.4744C7.14998 8.2944 7.14998 8.0144 7.32998 7.8344C7.50998 7.6544 7.78999 7.6544 7.96999 7.8344L8.52999 8.3944C8.69999 8.5644 8.69999 8.8544 8.52999 9.0344Z" fill="#F8312F"/>
<path d="M11.14 12.2844C11.32 12.4644 11.6 12.4644 11.78 12.2844C11.95 12.1044 11.95 11.8144 11.78 11.6444L9.6 9.46441C9.42 9.28441 9.13998 9.28441 8.95998 9.46441C8.77998 9.64441 8.77998 9.92441 8.95998 10.1044L11.14 12.2844Z" fill="#F8312F"/>
<path d="M23.46 23.9644C23.64 23.7844 23.92 23.7844 24.1 23.9644L24.66 24.5244C24.84 24.7044 24.84 24.9844 24.66 25.1644C24.48 25.3444 24.2 25.3444 24.02 25.1644L23.46 24.6044C23.29 24.4344 23.29 24.1444 23.46 23.9644Z" fill="#F8312F"/>
<path d="M20.86 20.7244C20.68 20.5444 20.4 20.5444 20.22 20.7244C20.04 20.8944 20.04 21.1844 20.22 21.3644L22.4 23.5444C22.58 23.7244 22.86 23.7244 23.04 23.5444C23.22 23.3644 23.22 23.0844 23.04 22.9044L20.86 20.7244Z" fill="#F8312F"/>
<path d="M5.42999 16.5001C5.42999 16.7778 5.23001 16.9999 4.98001 16.9999H4.19C3.94 16.9999 3.73999 16.7778 3.73999 16.5001C3.73999 16.2225 3.94 16.0003 4.19 16.0003H4.98001C5.23001 15.9892 5.42999 16.2114 5.42999 16.5001Z" fill="#F8312F"/>
<path d="M9.54886 16.9999C9.79949 16.9999 10 16.7778 10 16.5001C10 16.2114 9.78946 15.9892 9.54886 16.0003H6.45111C6.20048 16.0003 6 16.2225 6 16.5001C6 16.7778 6.20048 16.9999 6.45111 16.9999H9.54886Z" fill="#F8312F"/>
<path d="M26.56 16.4999C26.56 16.2222 26.76 15.9999 27.01 15.9999H27.8C28.05 15.9999 28.25 16.2222 28.25 16.4999C28.25 16.7777 28.05 16.9999 27.8 16.9999H27.01C26.76 16.9999 26.56 16.7777 26.56 16.4999Z" fill="#F8312F"/>
<path d="M22.4511 15.9999C22.2005 15.9999 22 16.2222 22 16.4999C22 16.7777 22.2105 16.9999 22.4511 16.9999H25.5489C25.7995 16.9999 26 16.7777 26 16.4999C26 16.2222 25.7995 15.9999 25.5489 15.9999H22.4511Z" fill="#F8312F"/>
<path d="M8.52999 23.9644C8.70999 24.1444 8.70999 24.4244 8.52999 24.6044L7.96999 25.1644C7.78999 25.3444 7.50998 25.3444 7.32998 25.1644C7.14998 24.9844 7.14998 24.7044 7.32998 24.5244L7.89001 23.9644C8.06 23.7944 8.34999 23.7944 8.52999 23.9644Z" fill="#F8312F"/>
<path d="M11.78 21.3644C11.96 21.1844 11.96 20.9044 11.78 20.7244C11.6 20.5444 11.31 20.5444 11.14 20.7244L8.95998 22.9044C8.77998 23.0844 8.77998 23.3644 8.95998 23.5444C9.13998 23.7244 9.42 23.7244 9.6 23.5444L11.78 21.3644Z" fill="#F8312F"/>
<path d="M23.46 9.0344C23.28 8.8544 23.28 8.5744 23.46 8.3944L24.02 7.8344C24.2 7.6544 24.48 7.6544 24.66 7.8344C24.84 8.0144 24.84 8.2944 24.66 8.4744L24.1 9.0344C23.93 9.2044 23.64 9.2044 23.46 9.0344Z" fill="#F8312F"/>
<path d="M20.22 11.6444C20.04 11.8244 20.04 12.1044 20.22 12.2844C20.39 12.4544 20.68 12.4544 20.86 12.2844L23.04 10.1044C23.22 9.92441 23.22 9.64441 23.04 9.46441C22.86 9.28441 22.58 9.28441 22.4 9.46441L20.22 11.6444Z" fill="#F8312F"/>
</svg>

<svg xmlns="http://www.w3.org/2000/svg" width="32" height="32" fill="none"><path fill="#533566" d="M26.32 2H5.68C3.65 2 2 3.65 2 5.68v20.64C2 28.35 3.65 30 5.68 30h20.64c2.03 0 3.68-1.65 3.68-3.68V5.68C30 3.65 28.35 2 26.32 2Z"/><path fill="#FFF478" d="M12 7.5a.5.5 0 1 1-1 0 .5.5 0 0 1 1 0ZM21 25.5a.5.5 0 1 1-1 0 .5.5 0 0 1 1 0ZM6.5 13a.5.5 0 1 0 0-1 .5.5 0 0 0 0 1ZM26 20.5a.5.5 0 1 1-1 0 .5.5 0 0 1 1 0ZM6.5 21a.5.5 0 1 0 0-1 .5.5 0 0 0 0 1ZM26 12.5a.5.5 0 1 1-1 0 .5.5 0 0 1 1 0ZM11.5 26a.5.5 0 1 0 0-1 .5.5 0 0 0 0 1ZM21 7.5a.5.5 0 1 1-1 0 .5.5 0 0 1 1 0Z"/><path fill="#FCD53F" d="M20.62 16.944a.479.479 0 0 1 0-.71l2.19-1.98c.33-.3.1-.86-.35-.83l-2.95.15a.478.478 0 0 1-.5-.5l.15-2.95c.02-.45-.53-.68-.83-.35l-1.98 2.19c-.19.21-.52.21-.71 0l-1.98-2.19c-.3-.33-.86-.1-.83.35l.15 2.95c.01.28-.22.52-.5.5l-2.95-.15c-.45-.02-.68.53-.35.83l2.19 1.98c.21.19.21.52 0 .71l-2.19 1.98c-.33.3-.1.86.35.83l2.95-.15c.28-.01.52.22.5.5l-.15 2.95c-.02.45.53.68.83.35l1.06-1.17c.13-.14.37-.05.37.14l.55 4.73c.02.18.18.32.36.32.19 0 .34-.14.36-.32l.55-4.73c0-.19.24-.29.37-.14l1.06 1.17c.3.33.86.1.83-.35l-.15-2.95c-.01-.28.22-.52.5-.5l2.95.15c.45.02.68-.53.35-.83l-2.2-1.98Z"/><path fill="#F8312F" d="M15.55 5.484c0 .25.2.45.45.45s.45-.2.45-.45v-.79c0-.25-.2-.45-.45-.45s-.45.2-.45.45v.79ZM15.5 10.084c0 .25.222.45.5.45s.5-.21.5-.45v-3.09c0-.25-.222-.45-.5-.45s-.5.2-.5.45v3.09ZM8.53 9.034c-.18.18-.46.18-.64 0l-.56-.56a.447.447 0 0 1 0-.64c.18-.18.46-.18.64 0l.56.56c.17.17.17.46 0 .64ZM11.14 12.284c.18.18.46.18.64 0 .17-.18.17-.47 0-.64L9.6 9.464a.447.447 0 0 0-.64 0c-.18.18-.18.46 0 .64l2.18 2.18ZM23.46 23.964c.18-.18.46-.18.64 0l.56.56c.18.18.18.46 0 .64s-.46.18-.64 0l-.56-.56a.465.465 0 0 1 0-.64ZM20.86 20.724a.447.447 0 0 0-.64 0c-.18.17-.18.46 0 .64l2.18 2.18c.18.18.46.18.64 0s.18-.46 0-.64l-2.18-2.18ZM5.43 16.5c0 .278-.2.5-.45.5h-.79c-.25 0-.45-.222-.45-.5 0-.277.2-.5.45-.5h.79c.25-.01.45.211.45.5ZM9.549 17c.25 0 .451-.222.451-.5 0-.289-.21-.51-.451-.5H6.45c-.25 0-.451.223-.451.5 0 .278.2.5.451.5H9.55ZM26.56 16.5c0-.278.2-.5.45-.5h.79c.25 0 .45.222.45.5s-.2.5-.45.5h-.79c-.25 0-.45-.222-.45-.5ZM22.451 16c-.25 0-.451.222-.451.5s.21.5.451.5h3.098c.25 0 .451-.222.451-.5s-.2-.5-.451-.5H22.45ZM8.53 23.964c.18.18.18.46 0 .64l-.56.56c-.18.18-.46.18-.64 0a.447.447 0 0 1 0-.64l.56-.56c.17-.17.46-.17.64 0ZM11.78 21.364c.18-.18.18-.46 0-.64a.447.447 0 0 0-.64 0l-2.18 2.18c-.18.18-.18.46 0 .64s.46.18.64 0l2.18-2.18ZM23.46 9.034a.447.447 0 0 1 0-.64l.56-.56c.18-.18.46-.18.64 0s.18.46 0 .64l-.56.56c-.17.17-.46.17-.64 0ZM20.22 11.644c-.18.18-.18.46 0 .64.17.17.46.17.64 0l2.18-2.18c.18-.18.18-.46 0-.64a.447.447 0 0 0-.64 0l-2.18 2.18Z"/></svg>
